svg/color/cake.svg

<svg width="64" height="65" viewBox="0 0 64 65" fill="none" xmlns="http://www.w3.org/2000/svg">
<g clip-path="url(#clip0_11313_5030)">
<rect y="0.303711" width="64" height="64" rx="32" fill="white"/>
<path d="M32 64.3037C49.6731 64.3037 64 49.9768 64 32.3037C64 14.6306 49.6731 0.303711 32 0.303711C14.3269 0.303711 0 14.6306 0 32.3037C0 49.9768 14.3269 64.3037 32 64.3037Z" fill="url(#paint0_linear_11313_5030)"/>
<path fill-rule="evenodd" clip-rule="evenodd" d="M31.9051 53.5536C25.6773 53.5489 20.6607 52.0545 17.1556 49.3703C13.6084 46.6538 11.7266 42.7989 11.7266 38.4371C11.7266 34.2341 13.6042 31.2035 15.7288 29.1549C17.3938 27.5495 19.2311 26.5213 20.5104 25.9299C20.2212 25.0421 19.8602 23.8797 19.5372 22.6791C19.1052 21.0726 18.6812 19.1877 18.6812 17.8065C18.6812 16.1717 19.0377 14.5298 19.9988 13.254C21.0142 11.9061 22.5428 11.1841 24.3818 11.1841C25.819 11.1841 27.0392 11.7171 27.9945 12.6369C28.9076 13.5159 29.5154 14.6835 29.935 15.9005C30.6723 18.0389 30.9594 20.7257 31.04 23.4069H32.8014C32.882 20.7257 33.169 18.0389 33.9064 15.9005C34.326 14.6835 34.9338 13.5159 35.8469 12.6369C36.8022 11.7171 38.0224 11.1841 39.4596 11.1841C41.2986 11.1841 42.8272 11.9061 43.8426 13.254C44.8037 14.5298 45.1602 16.1717 45.1602 17.8065C45.1602 19.1877 44.7362 21.0726 44.3041 22.6791C43.9812 23.8797 43.6202 25.0421 43.3309 25.9299C44.6103 26.5213 46.4476 27.5495 48.1126 29.1549C50.2372 31.2035 52.1148 34.2341 52.1148 38.4371C52.1148 42.7989 50.233 46.6538 46.6858 49.3703C43.1807 52.0545 38.1641 53.5489 31.9363 53.5536H31.9051Z" fill="#633001"/>
<path d="M24.3815 12.7389C21.688 12.7389 20.4481 14.7688 20.4481 17.5762C20.4481 19.8076 21.8888 24.2766 22.4799 26.0164C22.6128 26.4076 22.4039 26.8364 22.0229 26.9881C19.8642 27.848 13.4935 30.9964 13.4935 38.2068C13.4935 45.8022 19.9675 51.529 31.9062 51.5381C31.9109 51.5381 31.9157 51.5381 31.9205 51.5381C31.9252 51.5381 31.9299 51.5381 31.9347 51.5381C43.8733 51.529 50.3474 45.8022 50.3474 38.2068C50.3474 30.9964 43.9767 27.848 41.818 26.9881C41.437 26.8364 41.2281 26.4076 41.3611 26.0164C41.9521 24.2766 43.3927 19.8076 43.3927 17.5762C43.3927 14.7688 42.1529 12.7389 39.4594 12.7389C35.5822 12.7389 34.6157 18.2871 34.5468 24.2417C34.5422 24.6392 34.2241 24.9618 33.8305 24.9618H30.0104C29.6168 24.9618 29.2987 24.6392 29.2941 24.2417C29.2252 18.2871 28.2587 12.7389 24.3815 12.7389Z" fill="#D1884F"/>
<path d="M31.9347 49.1051C23.1628 49.1051 13.5087 44.3616 13.4935 38.2212C13.4935 38.2308 13.4935 38.2404 13.4935 38.2499C13.4935 45.8515 19.9779 51.5813 31.9347 51.5813C43.8915 51.5813 50.3759 45.8515 50.3759 38.2499C50.3759 38.2404 50.3759 38.2308 50.3759 38.2212C50.3607 44.3616 40.7067 49.1051 31.9347 49.1051Z" fill="#FEDC90"/>
<path d="M27.0615 36.3352C27.0615 38.4083 26.0917 39.488 24.8953 39.488C23.6989 39.488 22.7291 38.4083 22.7291 36.3352C22.7291 34.262 23.6989 33.1823 24.8953 33.1823C26.0917 33.1823 27.0615 34.262 27.0615 36.3352Z" fill="#633001"/>
<path d="M41.141 36.3352C41.141 38.4083 40.1712 39.488 38.9748 39.488C37.7785 39.488 36.8086 38.4083 36.8086 36.3352C36.8086 34.262 37.7785 33.1823 38.9748 33.1823C40.1712 33.1823 41.141 34.262 41.141 36.3352Z" fill="#633001"/>
</g>
<rect x="0.5" y="0.803711" width="63" height="63" rx="31.5" stroke="#070B14" stroke-opacity="0.15"/>
<defs>
<linearGradient id="paint0_linear_11313_5030" x1="32" y1="0.303711" x2="32" y2="64.3037" gradientUnits="userSpaceOnUse">
<stop stop-color="#53DEE9"/>
<stop offset="1" stop-color="#1FC7D4"/>
</linearGradient>
<clipPath id="clip0_11313_5030">
<rect y="0.303711" width="64" height="64" rx="32" fill="white"/>
</clipPath>
</defs>
</svg>

<svg xmlns="http://www.w3.org/2000/svg" width="64" height="65" fill="none" viewBox="0 0 64 65"><g clip-path="url(#cake_svg-a)"><rect width="64" height="64" y=".304" fill="#fff" rx="32"/><path fill="url(#cake_svg-b)" d="M32 64.304c17.673 0 32-14.327 32-32s-14.327-32-32-32-32 14.327-32 32 14.327 32 32 32"/><path fill="#633001" fill-rule="evenodd" d="M31.905 53.554c-6.228-.005-11.244-1.5-14.75-4.184-3.547-2.716-5.428-6.571-5.428-10.933 0-4.203 1.877-7.233 4.002-9.282 1.665-1.606 3.502-2.634 4.781-3.225-.289-.888-.65-2.05-.973-3.25-.432-1.607-.856-3.492-.856-4.873 0-1.635.357-3.277 1.318-4.553 1.015-1.348 2.544-2.07 4.383-2.07 1.437 0 2.657.533 3.612 1.453.914.879 1.521 2.047 1.941 3.263.737 2.139 1.024 4.826 1.105 7.507h1.761c.081-2.681.368-5.368 1.105-7.507.42-1.216 1.028-2.384 1.94-3.263a5.08 5.08 0 0 1 3.614-1.453c1.839 0 3.367.722 4.383 2.07.96 1.276 1.317 2.918 1.317 4.553 0 1.38-.424 3.266-.856 4.872a66 66 0 0 1-.973 3.25c1.28.592 3.117 1.62 4.782 3.226 2.124 2.048 4.002 5.08 4.002 9.282 0 4.362-1.882 8.217-5.43 10.933-3.504 2.685-8.52 4.179-14.749 4.184z" clip-rule="evenodd"/><path fill="#D1884F" d="M24.382 12.739c-2.694 0-3.934 2.03-3.934 4.837 0 2.232 1.44 6.7 2.032 8.44a.784.784 0 0 1-.457.972c-2.159.86-8.53 4.008-8.53 11.219 0 7.595 6.475 13.322 18.413 13.331h.029c11.938-.009 18.412-5.736 18.412-13.331 0-7.21-6.37-10.359-8.529-11.219a.784.784 0 0 1-.457-.972c.591-1.74 2.032-6.208 2.032-8.44 0-2.807-1.24-4.837-3.934-4.837-3.877 0-4.843 5.548-4.912 11.503a.723.723 0 0 1-.716.72h-3.82a.723.723 0 0 1-.717-.72c-.069-5.955-1.035-11.503-4.913-11.503"/><path fill="#FEDC90" d="M31.935 49.105c-8.772 0-18.426-4.743-18.441-10.884v.029c0 7.602 6.484 13.331 18.44 13.331 11.958 0 18.442-5.73 18.442-13.331v-.029c-.015 6.14-9.67 10.884-18.441 10.884"/><path fill="#633001" d="M27.062 36.335c0 2.073-.97 3.153-2.167 3.153s-2.166-1.08-2.166-3.153.97-3.153 2.166-3.153c1.197 0 2.166 1.08 2.166 3.153m14.08 0c0 2.073-.97 3.153-2.166 3.153-1.197 0-2.166-1.08-2.166-3.153s.97-3.153 2.166-3.153 2.166 1.08 2.166 3.153"/></g><rect width="63" height="63" x=".5" y=".804" stroke="#070B14" stroke-opacity=".15" rx="31.5"/><defs><linearGradient id="cake_svg-b" x1="32" x2="32" y1=".304" y2="64.304" gradientUnits="userSpaceOnUse"><stop stop-color="#53DEE9"/><stop offset="1" stop-color="#1FC7D4"/></linearGradient><clipPath id="cake_svg-a"><rect width="64" height="64" y=".304" fill="#fff" rx="32"/></clipPath></defs></svg>
